X:1
T:The Rolling Wave
M:6/8
L:1/8
Q:80
C:Arranged by T. Tully
S:Jig
K:HP
e|
{gcd}cBc{g}A{d}A{e}A|
{gAGAG}A2aged|
{gcd}cBc{g}A{d}A{e}A|  !
{gef}e2c{gde}dcB|1 {gcd}cBc{g}A{d}A{e}A|
{gAGAG}A2aged|
{gcd}cec{g}dfd|  !
{gef}e2c{gde}dcB:|2
{gcd}cBc{g}A{d}A{e}A|
{gAGAG}A2aged|  !
{gcd}cec{g}d2f|
{gef}edB{G}A2:|
a|  !
g{a}eag{a}ea|
ged{gcd}c2a|
g{a}ea{ef}e2c|  !
{gde}dcB{G}A2a|1 g{a}eag{a}ea|
ged{gcd}cec|
{g}dfd{gef}e2c|  !
{gde}dcB{G}A2a:|2
g{a}egaga|
ged{gcd}cec|  !
{g}dfd{gef}e2c|
{gde}dcB{G}A2:|

